src/main/resources/icons/TasksCoreIcons/icons/bugzilla.svg

<svg xmlns="http://www.w3.org/2000/svg" width="16" height="16" viewBox="0 0 16 16">
  <defs>
    <linearGradient id="bugzilla-a" x1="100.562%" x2="100.562%" y1="-.562%" y2="100.562%">
      <stop offset="0%" stop-color="#8A7AB9"/>
      <stop offset="100%" stop-color="#B888B6"/>
    </linearGradient>
    <linearGradient id="bugzilla-b" x1="21.436%" x2="9.869%" y1="78.993%" y2="93.893%">
      <stop offset="0%" stop-color="#F6DAAA"/>
      <stop offset="100%" stop-color="#E4BC98"/>
    </linearGradient>
  </defs>
  <g fill="none" fill-rule="evenodd" transform="translate(1 1)">
    <rect width="13.844" height="13.844" x=".078" y=".078" fill="url(#bugzilla-a)" rx="1.978"/>
    <path fill="#363433" d="M5.0238764 9.71348315C1.7834572 9.71348315 1.26586558 12.7073564 1.18315716 13.716524 1.18294029 13.7191701 1.43175538 13.835961 1.5 13.8381958 1.51088023 13.8385521 1.70098877 13.92 2.05448914 13.92 2.64027202 13.92 4.81967451 13.92 8.59269663 13.92 8.60714809 13.1292108 8.46688555 9.71348315 5.0238764 9.71348315zM11.7837043 4.93977152C11.8315804 7.77488753 8.56105932 3.70662206 9.01288612 1.99955064 9.31062714 1.70735935 9.54416607 1.45347886 10.0585557 1.42028937 10.4818073 1.45998315 11.4357504 3.31738077 11.7837043 4.93977152z"/>
    <path fill="#F6DAAA" d="M11.2862669,3.95308043 C11.3184878,5.86113382 8.95132094,3.123162 9.25540362,1.9742907 C9.45578546,1.77764387 9.65766074,1.60678047 10.0038487,1.58444371 C10.2887,1.61115791 11.0520914,2.86119982 11.2862669,3.95308043 Z"/>
    <path fill="#363433" d="M9.5,2.5 C8.4465411,1.90032733 7.23887174,1.73366066 5.87699194,2 C3.83417223,2.39950901 3.66693826,3.98131223 3.8444127,4.64365598 C4.26926059,6.15291126 4.48941285,7.31215243 4.56257816,8.73913915 C4.59055663,9.28481996 4.55740615,9.8696533 4.56257816,10.5281834 C4.91860834,10.9050681 6.39082599,11.3308743 7.00295037,10.7187492 C6.91426385,10.0491776 6.78135169,9.50693953 7.22386701,9.20889943 C7.71788482,8.8761717 8.36664359,8.78753375 9.31113788,8.85685613 C10.6693188,8.95654158 12.05974,8.87640053 12.9258677,8.08836487 C13.4180277,7.64057921 13.6433934,7.06512379 13.6433934,6.33236745 C13.5,5.66458023 13.2927556,5.29777118 12.7509199,4.75322688 C12.1793758,4.17882579 11.438788,3.7445061 10.2661241,3.07056207"/>
    <path fill="url(#bugzilla-b)" d="M6.17786494,2.15654757 C4.28729079,2.39307852 3.96032173,4.04091989 4.12096512,4.64044928 C4.65257674,6.52897849 4.90206634,7.81205458 4.91899029,9.96690879 C5.24125582,10.308051 6.13931917,10.6934753 6.69339182,10.139402 C6.52349726,8.85672027 7.59302899,8.4894891 9.21374497,8.60844364 C11.1416892,8.74994762 13.3732861,8.29352906 13.3732861,6.46301899 C13.2214145,5.30947625 12.1458955,4.45406162 10.0781636,3.26571126"/>
    <path fill="#F6DAAA" d="M5.38114162,3.05741769 C7.33677094,0.648950337 9.12172831,0.347366427 10.4426776,4.33842366"/>
    <path fill="#363433" d="M6.30578129 8.16994382C6.22692967 8.16994382 6.14194724 8.31435744 6.28230337 8.30266854 6.99055739 8.24368512 7.66770396 8.34460704 8.25732623 8.75766226L8.31139926 8.7478308 8.38513522 8.65443192 8.40704043 8.62958066C7.76172049 8.21844707 7.04372884 8.09552831 6.30578129 8.16994382zM7.08210828 5.31628035C6.9278324 5.16200447 6.04708659 2.41936627 7.55862938 1.98857501 8.52710289 1.71255906 9.68709009 3.84117686 9.68709009 4.72857118 9.68709009 5.61596534 7.87592135 6.04111136 7.08210828 5.31628035z"/>
    <path fill="#FFF" d="M7.15749733,5.22972249 C7.01444391,5.08666908 6.19776602,2.54353809 7.59935494,2.1440838 C8.49737897,1.88814602 9.57298544,3.86192218 9.57298544,4.68476494 C9.57298544,5.50760755 7.8935662,5.90182726 7.15749733,5.22972249 Z"/>
    <path fill="#343231" d="M8.51876587,3.20198849 C8.51876587,3.69781551 8.23599304,4.09976274 7.88717508,4.09976274 C7.53835711,4.09976274 7.25558428,3.69781551 7.25558428,3.20198849 C7.25558428,2.70616146 7.53835711,2.30421423 7.88717508,2.30421423 C8.23599304,2.30421423 8.51876587,2.70616146 8.51876587,3.20198849 Z" transform="rotate(10.074 7.887 3.202)"/>
    <path fill="#FFF" d="M8.024915,2.90119802 C8.02494457,3.01558584 7.98852471,3.12130574 7.92938135,3.17851396 C7.870238,3.23572217 7.79736185,3.23572217 7.73821849,3.17851396 C7.67907514,3.12130574 7.64265528,3.01558584 7.64268484,2.90119802 C7.64265528,2.78681019 7.67907514,2.68109029 7.73821849,2.62388208 C7.79736185,2.56667387 7.870238,2.56667387 7.92938135,2.62388208 C7.98852471,2.68109029 8.02494457,2.78681019 8.024915,2.90119802 Z" transform="rotate(25.789 7.834 2.901)"/>
    <path fill="#FFF" d="M7.96298638,3.68130394 C7.9630019,3.71676408 7.94336935,3.74953699 7.91148777,3.76727137 C7.87960618,3.78500575 7.84032197,3.78500575 7.80844039,3.76727137 C7.7765588,3.74953699 7.75692626,3.71676408 7.75694177,3.68130394 C7.75692626,3.64584381 7.7765588,3.6130709 7.80844039,3.59533652 C7.84032197,3.57760214 7.87960618,3.57760214 7.91148777,3.59533652 C7.94336935,3.6130709 7.9630019,3.64584381 7.96298638,3.68130394 Z" transform="scale(-1 1) rotate(30.955 0 -24.704)"/>
    <path fill="#FFF" d="M4.72135797,9.97507775 C2.900386,9.92566121 1.72554406,11.7660392 1.85687885,11.8321554 C2.07505438,11.8802619 2.30851979,11.3624617 3.22431831,10.5906348 C3.63949162,10.2407309 4.73794137,10.1225015 4.72184577,9.99965153 C4.72156263,9.99123737 4.7218357,9.98329622 4.72135813,9.97507775 L4.72135797,9.97507775 Z" transform="rotate(-3 3.284 10.905)"/>
    <path fill="#E67E71" d="M4.87148876,10.318118 C2.93588243,11.1676773 2.35303128,12.5975663 2.33497191,13.92 L8.38623596,13.92 C8.38571685,12.8939306 8.32630526,11.4582953 6.84269663,10.3967697 C6.49138079,10.7059416 6.03727978,10.7561449 5.65800562,10.6769663 C5.35173674,10.6130272 5.0792387,10.47932 4.87148876,10.318118 Z"/>
    <path fill="#363433" d="M10.4434691,4.34058989 C10.1876724,3.32523942 9.82527802,2.57562247 9.43328652,2.06952247 C9.04129501,1.56342247 8.61212769,1.28376398 8.16011236,1.21910112 C7.70809703,1.15443827 7.24223822,1.30098728 6.76896067,1.61235955 C6.29568312,1.92373182 5.69785009,2.6014756 5.38026685,3.05758427 C5.90531578,2.53558294 6.39982566,2.04291996 6.85252809,1.74508427 C7.30523052,1.44724858 7.7366531,1.40532206 8.14044944,1.463087 C8.54424578,1.52085195 8.93015908,1.678348 9.30547753,2.16292135 C9.68079598,2.6474947 10.0904062,3.3579538 10.4434691,4.34058989 Z"/>
  </g>
</svg>

<svg xmlns="http://www.w3.org/2000/svg" width="16" height="16" viewBox="0 0 16 16"><rect id="frame" width="16" height="16" fill="none"/><defs><linearGradient id="a" x1="100.562%" x2="100.562%" y1="-.562%" y2="100.562%"><stop offset="0%" stop-color="#8A7AB9"/><stop offset="100%" stop-color="#B888B6"/></linearGradient><linearGradient id="b" x1="21.436%" x2="9.869%" y1="78.993%" y2="93.893%"><stop offset="0%" stop-color="#F6DAAA"/><stop offset="100%" stop-color="#E4BC98"/></linearGradient></defs><g fill="none" fill-rule="evenodd" transform="translate(1 1)"><rect width="13.844" height="13.844" x=".078" y=".078" fill="url(#a)" rx="1.978"/><path fill="#363433" d="M5.024 9.713c-3.24 0-3.758 2.994-3.84 4.004-.001.002.248.119.316.121.01 0 .201.082.554.082h6.539c.014-.79-.126-4.207-3.57-4.207zm6.76-4.773C11.832 7.775 8.56 3.707 9.013 2c.298-.293.531-.547 1.046-.58.423.04 1.377 1.897 1.725 3.52z"/><path fill="#F6DAAA" d="M11.286 3.953c.032 1.908-2.335-.83-2.03-1.979.2-.196.402-.367.748-.39.285.027 1.048 1.277 1.282 2.37z"/><path fill="#363433" d="M9.5 2.5c-1.053-.6-2.261-.766-3.623-.5-2.043.4-2.21 1.981-2.033 2.644.425 1.509.645 2.668.719 4.095.028.546-.006 1.13 0 1.79.356.376 1.828.802 2.44.19-.089-.67-.222-1.212.22-1.51.495-.333 1.144-.421 2.088-.352 1.358.1 2.749.02 3.615-.769.492-.447.717-1.023.717-1.756-.143-.667-.35-1.034-.892-1.579-.572-.574-1.312-1.008-2.485-1.682"/><path fill="url(#b)" d="M6.178 2.157C4.288 2.393 3.96 4.04 4.12 4.64c.532 1.889.781 3.172.798 5.327.322.341 1.22.726 1.774.172-.17-1.282.9-1.65 2.52-1.53 1.929.14 4.16-.315 4.16-2.146-.152-1.154-1.227-2.009-3.295-3.197"/><path fill="#F6DAAA" d="M5.381 3.057C7.337.65 9.121.347 10.443 4.338"/><path fill="#363433" d="M6.306 8.17c-.08 0-.164.144-.024.133.709-.06 1.386.042 1.975.455l.054-.01.074-.094.022-.024c-.645-.412-1.363-.534-2.101-.46zm.776-2.854c-.154-.154-1.035-2.897.477-3.327.968-.276 2.128 1.852 2.128 2.74 0 .887-1.811 1.312-2.605.587z"/><path fill="#FFF" d="M7.157 5.23c-.143-.143-.96-2.686.442-3.086.898-.256 1.974 1.718 1.974 2.54 0 .824-1.68 1.218-2.416.546z"/><path fill="#343231" d="M8.509 3.312c-.087.489-.435.835-.779.774-.343-.061-.551-.506-.465-.994.087-.489.436-.835.78-.774.343.061.55.506.464.994z"/><path fill="#FFF" d="M8.006 2.984c-.05.103-.129.183-.207.208-.078.026-.144-.006-.172-.083-.028-.077-.015-.188.035-.291.05-.103.128-.182.206-.208.078-.026.144.006.172.083.029.077.016.188-.034.291z"/><path fill="#FFF" d="M7.772 3.734c.018.03.051.049.088.048a.106.106 0 0 0 .088-.053.099.099 0 0 0 0-.1.099.099 0 0 0-.088-.048.106.106 0 0 0-.088.053.099.099 0 0 0 0 .1z"/><path fill="#FFF" d="M4.67 9.901c-1.82.046-2.897 1.945-2.763 2.005.22.036.427-.493 1.3-1.312.397-.371 1.488-.547 1.465-.668L4.671 9.9z"/><path fill="#E67E71" d="M4.871 10.318c-1.935.85-2.518 2.28-2.536 3.602h6.051c0-1.026-.06-2.462-1.543-3.523-.352.309-.806.36-1.185.28a1.946 1.946 0 0 1-.787-.359z"/><path fill="#363433" d="M10.443 4.34c-.255-1.015-.618-1.764-1.01-2.27-.392-.507-.82-.786-1.273-.85-.452-.066-.918.081-1.391.392-.473.312-1.071.99-1.389 1.446.525-.522 1.02-1.015 1.473-1.313.452-.298.884-.34 1.287-.282.404.058.79.215 1.165.7.376.484.785 1.195 1.138 2.178z"/></g></svg>
